X: 508
T: Canfezâ Seyir
C: Şefik Gürmeriç
O: Turkey
F: http://compmusic.upf.edu/node/140
N: canfeza--seyir--sofyan--1--sefik_gurmeric
N: makam= canfeza
N: form= seyir
N: usul= sofyan = 4/4
M: 4/4
L: 1/16
K: C _1/4B _7/8d  
Q: 1/4=60
%%MIDI tuningsystem comma53
c8 _3/4d6c2  | c3_2/4B A2B2 c8  | z4 c2_3/4d2 e2f2 g2_7/8a2  | \
w:   |   |   | 
g3f e2g2 f8  | z4 e2f2 g2_7/8a4g2  | 
w:   |   | 
g2f2 f2e2 e8  | z4 f4 e4 _3/4d4  | e2_3/4d2 c2_2/4B2 c8  | \
w:   |   |   | 
z4 c2_3/4d2 c4 d2e2  | _3/4d2c2 c2d2 c2_2/4BA B4  | 
w:   |   | 
z4 _2/4B2c2 B4 c2_3/4d2  | c2_2/4B2 A2B2 A8  | \
w:   |   | 
z2A4_B2 c4 =d4  | c2_B2 A2G2 AGFE F4  | 
w:   |   | 
z2EF G2A2 A_BAG FE=D2  | z2G4FE E8  | |


